X: 250
T:Ralph Page Jig
% Nottingham Music Database
S:Ken Hillyer, via Phil Rowe
M:6/8
K:D
"D"d3 "A"ABc|"D"d3 "A"ABc|"D"d2c d2f|a3 -agf|"G"g3 -gfe|"D"f3 -fed|\
"Em"e2g "A7"ABc|"D"d3 d3::
"D"f3 d3|"D7"f^ef d3|"G"g2f "Em"e2d|"A"c2B A3|"D7"f3 d3|"Em"gfg g2^g|\
"A7"a2g f2e|"D"d3 d3:|<end>
<start>
